(   EASYMILL / GENERIC ISO POST-PROCESSOR  );
(MILIEU INT);
(CONTOURNAGE);
(FRAISE EBAUCHE D  20.000);
G00 X33.068 Y2.014;
G00 Z-30.;
G00 X30.945 Y-4.767;
G02 X30.235 Y-4.542 I38.789 J123.876 F0;
G02 X42.364 Y45.694 I8.866 J24.441;
G03 X57.719 Y53.98 I1.883 J14.881;
G02 X87.844 Y67.403 I23.321 J-11.823;
G02 X107.144 Y40.66 I-6.804 J-25.246;
G03 X107.133 Y40.425 I9.984 J-0.573;
G00 X107.093 Y39.229;
G03 X108.357 Y31.523 I19.989 J-0.676 F0;
G03 X117.698 Y22.552 I14.043 J5.272;
G02 X131.81 Y5.246 I-6.507 J-19.712;
G02 X99.201 Y-20.411 I-26.775 J0.479;
G03 X95.579 Y-20.055 I-3.268 J-14.64;
G02 X83.422 Y-19.029 I-1.339 J56.652;
G03 X48.228 Y-8.904 I-19.821 J-2.668;
G02 X30.945 Y-4.767 I21.506 J128.013;
G00 X33.068 Y2.014;
G00 Z0. M8;
(FRAISE EBAUCHE D  18.000);
G00 X33.068 Y2.014;
G00 Z0.;
G00 Z-30.;
G00 X30.646 Y-5.721;
G02 X29.912 Y-5.489 I39.088 J124.83 F0;
G02 X42.49 Y46.686 I9.189 J25.388;
G03 X56.824 Y54.426 I1.757 J13.889;
G02 X88.101 Y68.369 I24.216 J-12.269;
G02 X108.142 Y40.602 I-7.061 J-26.212;
G03 X108.132 Y40.391 I8.985 J-0.515;
G00 X108.092 Y39.195;
G03 X109.293 Y31.875 I18.989 J-0.642 F0;
G03 X118.012 Y23.501 I13.107 J4.921;
G02 X132.811 Y5.295 I-6.82 J-20.661;
G02 X98.983 Y-21.387 I-27.776 J0.43;
G03 X95.602 Y-21.055 I-3.05 J-13.664;
G02 X82.512 Y-19.866 I-1.362 J57.651;
G03 X48.639 Y-9.986 I-18.912 J-1.831;
G02 X30.646 Y-5.721 I21.095 J129.095;
G00 X33.068 Y2.014;
G00 Z0. M8;
(FRAISE EBAUCHE D  16.000);
G00 X33.068 Y2.014;
G00 Z-30.;
G00 X30.347 Y-6.676;
G02 X29.59 Y-6.436 I39.387 J125.785 F0;
G02 X42.615 Y47.678 I9.511 J26.335;
G03 X55.929 Y54.871 I1.632 J12.897;
G02 X88.357 Y69.336 I25.111 J-12.715;
G02 X109.14 Y40.545 I-7.317 J-27.179;
G03 X109.132 Y40.357 I7.987 J-0.458;
G00 X109.091 Y39.161;
G03 X110.23 Y32.226 I17.99 J-0.608 F0;
G03 X118.325 Y24.451 I12.171 J4.569;
G02 X133.812 Y5.344 I-7.133 J-21.611;
G02 X98.765 Y-22.363 I-28.777 J0.382;
G03 X95.626 Y-22.054 I-2.832 J-12.688;
G02 X81.573 Y-20.687 I-1.386 J58.651;
G03 X49.074 Y-11.069 I-17.972 J-1.01;
G02 X30.347 Y-6.676 I20.66 J130.178;
G00 X33.068 Y2.014;
G00 Z0. M8;
(FRAISE EBAUCHE D  14.000);
G00 X33.068 Y2.014;
G00 Z-30.;
G00 X30.048 Y-7.63;
G02 X29.267 Y-7.383 I39.686 J126.739 F0;
G02 X42.741 Y48.67 I9.834 J27.282;
G03 X55.033 Y55.317 I1.506 J11.905;
G02 X88.614 Y70.302 I26.007 J-13.16;
G02 X110.139 Y40.488 I-7.574 J-28.145;
G03 X110.131 Y40.324 I6.989 J-0.401;
G00 X110.091 Y39.128;
G03 X111.166 Y32.578 I16.99 J-0.575 F0;
G03 X118.639 Y25.4 I11.234 J4.218;
G02 X134.812 Y5.392 I-7.447 J-22.561;
G02 X98.547 Y-23.339 I-29.778 J0.333;
G03 X95.649 Y-23.054 I-2.614 J-11.712;
G02 X80.6 Y-21.491 I-1.41 J59.651;
G03 X49.533 Y-12.153 I-16.999 J-0.206;
G02 X30.048 Y-7.63 I20.201 J131.262;
G00 X33.068 Y2.014;
G00 Z0. M8;
(FRAISE EBAUCHE D  12.200);
G00 X33.068 Y2.014;
G00 Z-30.;
G00 X29.779 Y-8.489;
G02 X28.978 Y-8.235 I39.955 J127.598 F0;
G02 X42.854 Y49.563 I10.123 J28.134;
G03 X54.227 Y55.717 I1.393 J11.012;
G02 X88.844 Y71.172 I26.813 J-13.56;
G02 X111.037 Y40.436 I-7.804 J-29.015;
G03 X111.031 Y40.293 I6.09 J-0.349;
G00 X110.99 Y39.097;
G03 X112.008 Y32.894 I16.091 J-0.544 F0;
G03 X118.921 Y26.255 I10.392 J3.901;
G02 X135.713 Y5.436 I-7.729 J-23.415;
G02 X98.351 Y-24.217 I-30.678 J0.29;
G03 X95.671 Y-23.954 I-2.418 J-10.833;
G02 X79.693 Y-22.198 I-1.431 J60.551;
G03 X49.97 Y-13.129 I-16.092 J0.501;
G02 X29.779 Y-8.489 I19.764 J132.238;
G00 X33.068 Y2.014;
G00 Z0. M8;
M9;
M02
(Fin de Programme)
M30
